icons/glyphs/glyph--apple-exe.svg

<?xml version="1.0" encoding="UTF-8" standalone="no"?><svg height="16" viewBox="0 0 4.2333333 4.2333333" width="16" xmlns="http://www.w3.org/2000/svg"><sodipodi:namedview/><metadata><rdf:RDF><cc:Work><dc:format>image/svg+xml</dc:format><dc:type/><dc:title/></cc:Work></rdf:RDF></metadata><path d="m0 0v16h16v-16zm .7265625 3.6367188h14.5468755v11.6367192h-14.5468755zm9.171875 1.234375c-.2298043.0119395-.4741025.0811276-.7324219.2070312-.2588795.1278002-.472761.2877847-.640625.4804688-.336206.3805474-.5253906.8463552-.5253906 1.28125 0 .0601058.0031137.1175253.0097656.171875.5221746.0424376 1.0042397-.2259839 1.4023438-.6914063.3298847-.3915069.4941406-.8145621.4941406-1.2675781 0-.060087-.0011605-.1210851-.0078125-.1816406zm-.0429687 2.1503906c-.2812438-.0238791-.624478.0372126-1.03125.1835937-.4301417.1578482-.6829439.2363281-.7578126.2363281-.10014 0-.3278721-.0676525-.6835937-.2011718-.3567277-.1330923-.6443824-.2011719-.8632813-.2011719-.4000622.006652-.7714258.1103624-1.1152343.3144531-.3438123.2040847-.619685.4835155-.8261719.8359375-.262746.4387525-.3925781.9613076-.3925781 1.5683594 0 .5299485.0969406 1.0772935.2910156 1.6425785.1812151.523352.4120042.983038.6933594 1.378906.2622342.370707.4812401.632506.65625.785156.2741975.254956.5486212.375036.8242187.363281.1812148-.006164.4186733-.068403.7128906-.1875.293768-.118518.5681331-.175781.8242188-.175781.2441749 0 .512153.05724.8027344.175781.2896316.119097.5378275.177735.7441406.177735.287393-.006709.556149-.123154.806641-.353516.161589-.140344.370867-.394648.626953-.759765.187868-.267826.349343-.558529.486328-.875.05647-.134193.109828-.273991.160156-.419922-.23204-.097289-.440195-.234876-.626953-.41211-.412082-.381889-.620755-.861475-.626953-1.4394529-.00671-.7420293.330133-1.3213977 1.011719-1.734375-.380773-.5412419-.954697-.840847-1.7167972-.9023437z" fill="#d0d0d0" fill-rule="evenodd" transform="scale(.26458333)"/></svg>

<?xml version="1.0" encoding="UTF-8" standalone="no"?>
<!-- Created with Inkscape (http://www.inkscape.org/) -->

<svg
     xmlns:dc="http://purl.org/dc/elements/1.1/"
     xmlns:cc="http://creativecommons.org/ns#"
     xmlns:rdf="http://www.w3.org/1999/02/22-rdf-syntax-ns#"
     xmlns:svg="http://www.w3.org/2000/svg"
     xmlns="http://www.w3.org/2000/svg"
     xmlns:sodipodi="http://sodipodi.sourceforge.net/DTD/sodipodi-0.dtd"
     xmlns:inkscape="http://www.inkscape.org/namespaces/inkscape"
     width="16"
     height="16"
     viewBox="0 0 4.2333333 4.2333333"
     version="1.1"
     id="svg8"
     inkscape:version="0.92+devel (fa9b7f7a5b, 2017-07-19, custom)"
     sodipodi:docname="glyph--apple-exe.svg">
    <defs
         id="defs2" />
    <sodipodi:namedview
         id="base"
         pagecolor="#002466"
         bordercolor="#ffffff"
         borderopacity="0.38039216"
         inkscape:pageopacity="1"
         inkscape:pageshadow="2"
         inkscape:zoom="26.8125"
         inkscape:cx="8"
         inkscape:cy="8"
         inkscape:document-units="px"
         inkscape:current-layer="svg8"
         inkscape:document-rotation="0"
         showgrid="false"
         inkscape:showpageshadow="false"
         borderlayer="true"
         inkscape:window-width="1920"
         inkscape:window-height="1051"
         inkscape:window-x="0"
         inkscape:window-y="0"
         inkscape:window-maximized="1"
         units="px" />
    <metadata
         id="metadata5">
        <rdf:RDF>
            <cc:Work
                 rdf:about="">
                <dc:format>image/svg+xml</dc:format>
                <dc:type
                     rdf:resource="http://purl.org/dc/dcmitype/StillImage" />
                <dc:title></dc:title>
            </cc:Work>
        </rdf:RDF>
    </metadata>
    <path
         style="fill:#d0d0d0;fill-rule:evenodd;stroke-width:0.99999994"
         d="M 0 0 L 0 16 L 16 16 L 16 0 L 0 0 z M 0.7265625 3.6367188 L 15.273438 3.6367188 L 15.273438 15.273438 L 0.7265625 15.273438 L 0.7265625 3.6367188 z M 9.8984375 4.8710938 C 9.6686332 4.8830333 9.424335 4.9522214 9.1660156 5.078125 C 8.9071361 5.2059252 8.6932546 5.3659097 8.5253906 5.5585938 C 8.1891846 5.9391412 8 6.404949 8 6.8398438 C 8 6.8999496 8.0031137 6.9573691 8.0097656 7.0117188 C 8.5319402 7.0541564 9.0140053 6.7857349 9.4121094 6.3203125 C 9.7419941 5.9288056 9.90625 5.5057504 9.90625 5.0527344 C 9.90625 4.9926474 9.9050895 4.9316493 9.8984375 4.8710938 z M 9.8554688 7.0214844 C 9.574225 6.9976053 9.2309908 7.058697 8.8242188 7.2050781 C 8.3940771 7.3629263 8.1412749 7.4414062 8.0664062 7.4414062 C 7.9662662 7.4414062 7.7385341 7.3737537 7.3828125 7.2402344 C 7.0260848 7.1071421 6.7384301 7.0390625 6.5195312 7.0390625 C 6.119469 7.0457145 5.7481054 7.1494249 5.4042969 7.3535156 C 5.0604846 7.5576003 4.7846119 7.8370311 4.578125 8.1894531 C 4.315379 8.6282056 4.1855469 9.1507607 4.1855469 9.7578125 C 4.1855469 10.287761 4.2824875 10.835106 4.4765625 11.400391 C 4.6577776 11.923743 4.8885667 12.383429 5.1699219 12.779297 C 5.4321561 13.150004 5.651162 13.411803 5.8261719 13.564453 C 6.1003694 13.819409 6.3747931 13.939489 6.6503906 13.927734 C 6.8316054 13.92157 7.0690639 13.859331 7.3632812 13.740234 C 7.6570492 13.621716 7.9314143 13.564453 8.1875 13.564453 C 8.4316749 13.564453 8.699653 13.621693 8.9902344 13.740234 C 9.279866 13.859331 9.5280619 13.917969 9.734375 13.917969 C 10.021768 13.91126 10.290524 13.794815 10.541016 13.564453 C 10.702605 13.424109 10.911883 13.169805 11.167969 12.804688 C 11.355837 12.536862 11.517312 12.246159 11.654297 11.929688 C 11.710767 11.795495 11.764125 11.655697 11.814453 11.509766 C 11.582413 11.412477 11.374258 11.27489 11.1875 11.097656 C 10.775418 10.715767 10.566745 10.236181 10.560547 9.6582031 C 10.553837 8.9161738 10.89068 8.3368054 11.572266 7.9238281 C 11.191493 7.3825862 10.617569 7.0829811 9.8554688 7.0214844 z "
         transform="scale(0.26458333)"
         id="path1417"
         inkscape:label="#" />
</svg>
